X:0795
T:Life's a Pun
C:By Dibdin.
M:6/8
L:1/8
Q:3/8=104
I: ||
Z:Jack Campin * www.campin.me.uk * 2009
K:D
A   |Aff       gee|fdd ecc| dBB     AGF|Eed cBA    |
     Afa/f/    gee|fdd ecc| dBB     Adf|edd d2
d/c/|ddd      =ccc|BGB AFD|=c>de/c/ BGB|eee e>fe/d/|
     cc/d/e/f/ gee|edd ecc| dBd     gBB|AFA d2     \
A   |BGF       Eeg|fdd d2|]
<end>
<start>
